X: 7788
T: Come In From The Rain
R: slide
M: 12/8
K: Adorian
|:e2A ABA ~g3 d2c|B2G GFG B2c d2g|
e2A ABA gfg a2b|1 c'2a bag ~a3 a2g:|2 c'2a bag ~a3 a2B||
|:cBA e2B cBA e2c|B2A G2A B2c d2B|
[1 cBA e2B cBA e2c|B2G EFG ~A3 A2B:|2 cBA e2c d2B cBA|B2G EFG ~A3 A2g||

